images/wl-icons/help.svg

<svg xmlns="http://www.w3.org/2000/svg" xmlns:xlink="http://www.w3.org/1999/xlink" id="help-Capa_1" xml:space="preserve" height="28" viewBox="-1.688 -1.875 27.375 27.688" width="27" version="1.1" y="0px" x="0px" enable-background="new -1.688 -1.875 27.375 27.688"><path d="m12 0c-6.627 0-12 5.373-12 12s5.373 12 12 12 12-5.373 12-12-5.373-12-12-12zm-0.187 20.32c-0.955 0-1.728-0.775-1.728-1.727 0-0.959 0.772-1.728 1.728-1.728 0.957 0 1.727 0.769 1.727 1.728-0.001 0.952-0.772 1.727-1.727 1.727zm2.839-10.274l-3.136 3.106c-0.183 0.183-0.183 0.479 0 0.662s0.479-0.058 0.663-0.24c0.12-0.121 0.137 0.426 0.137-0.574h1.875c0 1-0.243 1.457-0.688 1.928-0.441 0.443-1.03 0.809-1.657 0.809-0.625 0-1.214-0.184-1.657-0.627-0.443-0.471-0.687-1.029-0.687-1.655s0.243-1.199 0.687-1.613l3.136-3.127c0.354-0.355 0.55-0.823 0.55-1.323 0-0.501-0.196-0.97-0.55-1.324-0.73-0.731-1.92-0.929-2.65-0.196-0.356 0.352-0.551 1.128-0.551 1.128h-1.875c0-1 0.392-1.748 1.101-2.456 1.416-1.418 3.884-1.318 5.302 0.1 0.709 0.707 1.1 1.698 1.1 2.702-0.001 1.001-0.391 1.992-1.1 2.7z" fill="#009B9B"/></svg>

<?xml version="1.0" encoding="utf-8"?>
<!DOCTYPE svg PUBLIC "-//W3C//DTD SVG 1.1//EN" "http://www.w3.org/Graphics/SVG/1.1/DTD/svg11.dtd"><svg xmlns="http://www.w3.org/2000/svg" xmlns:xlink="http://www.w3.org/1999/xlink" viewBox="-1.688 -1.875 27.375 27.688" height="27.688px" xml:space="preserve" x="0px" y="0px" id="Capa_1" width="27.375px" version="1.1" enable-background="new -1.688 -1.875 27.375 27.688">
  <path fill="#009B9B" d="M12,0C5.373,0,0,5.373,0,12s5.373,12,12,12s12-5.373,12-12S18.627,0,12,0z M11.813,20.32  c-0.955,0-1.728-0.775-1.728-1.727c0-0.959,0.772-1.728,1.728-1.728c0.957,0,1.727,0.769,1.727,1.728  C13.539,19.545,12.768,20.32,11.813,20.32z M14.652,10.046l-3.136,3.106c-0.183,0.183-0.183,0.479,0,0.662s0.479-0.058,0.663-0.24  C12.299,13.453,12.316,14,12.316,13h1.875c0,1-0.243,1.457-0.688,1.928c-0.441,0.443-1.03,0.809-1.657,0.809  c-0.625,0-1.214-0.184-1.657-0.627c-0.443-0.471-0.687-1.029-0.687-1.655s0.243-1.199,0.687-1.613l3.136-3.127  c0.354-0.355,0.55-0.823,0.55-1.323c0-0.501-0.196-0.97-0.55-1.324c-0.73-0.731-1.92-0.929-2.65-0.196  C10.319,6.224,10.124,7,10.124,7H8.249c0-1,0.392-1.748,1.101-2.456c1.416-1.418,3.884-1.318,5.302,0.1  c0.709,0.707,1.1,1.698,1.1,2.702C15.751,8.347,15.361,9.338,14.652,10.046z" />
</svg>
